qml/icons/fallback/edit-delete-symbolic.svg

<?xml version='1.0' encoding='UTF-8'?>
<!-- Created with Inkscape (http://www.inkscape.org/) -->

<svg xmlns:cc='http://creativecommons.org/ns#' xmlns:inkscape='http://www.inkscape.org/namespaces/inkscape' xmlns:svg='http://www.w3.org/2000/svg' id='svg7384' version='1.1' height='16' xmlns:dc='http://purl.org/dc/elements/1.1/' xmlns:rdf='http://www.w3.org/1999/02/22-rdf-syntax-ns#' xmlns='http://www.w3.org/2000/svg' width='16'>
  <title id='title9167'>Gnome Symbolic Icon Theme</title>
  <metadata id='metadata90'>
    <rdf:RDF>
      <cc:Work rdf:about=''>
        <dc:format>image/svg+xml</dc:format>
        <dc:type rdf:resource='http://purl.org/dc/dcmitype/StillImage'/>
        <dc:title>Gnome Symbolic Icon Theme</dc:title>
      </cc:Work>
    </rdf:RDF>
  </metadata>
  <defs id='defs7386'/>
  <g transform='translate(-40,-518)' id='layer9' style='display:inline'/>
  <g transform='translate(-40,-518)' id='layer10'/>
  <g transform='translate(-40,-518)' id='layer11'/>
  <g transform='translate(-40,-518)' id='layer12'>
    
    <path inkscape:connector-curvature='0' d='m 48,519.03125 c -3.85327,0 -6.96875,3.11547 -6.96875,6.96875 0,3.85327 3.11548,6.96875 6.96875,6.96875 3.85327,0 6.96875,-3.11548 6.96875,-6.96875 0,-3.85328 -3.11548,-6.96875 -6.96875,-6.96875 z M 45,523 l 1,0 c 0.01037,-1.2e-4 0.02079,-4.6e-4 0.03125,0 0.254951,0.0112 0.50987,0.12858 0.6875,0.3125 L 48,524.59375 49.3125,523.3125 C 49.578125,523.082 49.759172,523.007 50,523 l 1,0 0,1 c 0,0.28647 -0.03434,0.55065 -0.25,0.75 l -1.28125,1.28125 1.25,1.25 C 50.906938,527.46942 50.999992,527.7347 51,528 l 0,1 -1,0 c -0.265301,-10e-6 -0.530586,-0.0931 -0.71875,-0.28125 L 48,527.4375 46.71875,528.71875 C 46.530586,528.90694 46.26529,529 46,529 l -1,0 0,-1 c -3e-6,-0.26529 0.09306,-0.53058 0.28125,-0.71875 l 1.28125,-1.25 L 45.28125,524.75 C 45.070508,524.55537 44.97809,524.28075 45,524 l 0,-1 z' id='path10839' style='font-size:medium;font-style:normal;font-variant:normal;font-weight:normal;font-stretch:normal;text-indent:0;text-align:start;text-decoration:none;line-height:normal;letter-spacing:normal;word-spacing:normal;text-transform:none;direction:ltr;block-progression:tb;writing-mode:lr-tb;text-anchor:start;color:#000000;fill:#000000;fill-opacity:1;fill-rule:nonzero;stroke:none;stroke-width:1.78124988;marker:none;visibility:visible;display:inline;overflow:visible;enable-background:new;font-family:Andale Mono;-inkscape-font-specification:Andale Mono'/>
  </g>
  <g transform='translate(-40,-518)' id='layer13'/>
  <g transform='translate(-40,-518)' id='layer14'/>
  <g transform='translate(-40,-518)' id='layer15'/>
</svg>

<svg height="16" xmlns="http://www.w3.org/2000/svg" width="16"><path d="M48 519.031A6.963 6.963 0 0 0 41.031 526 6.963 6.963 0 0 0 48 532.969 6.963 6.963 0 0 0 54.969 526 6.963 6.963 0 0 0 48 519.031zM45 523h1.031c.255.011.51.129.688.313l1.281 1.28 1.313-1.28c.265-.231.446-.306.687-.313h1v1c0 .286-.034.55-.25.75l-1.281 1.281 1.25 1.25c.188.188.281.454.281.719v1h-1c-.265 0-.53-.093-.719-.281L48 527.437l-1.281 1.282A1.015 1.015 0 0 1 46 529h-1v-1c0-.265.093-.53.281-.719l1.282-1.25-1.282-1.281A.909.909 0 0 1 45 524v-1z" style="font-size:medium;font-style:normal;font-variant:normal;font-weight:400;font-stretch:normal;text-indent:0;text-align:start;text-decoration:none;line-height:normal;letter-spacing:normal;word-spacing:normal;text-transform:none;direction:ltr;block-progression:tb;writing-mode:lr-tb;text-anchor:start;color:#000;fill:#000;fill-opacity:1;fill-rule:nonzero;stroke:none;stroke-width:1.78124988;marker:none;visibility:visible;display:inline;overflow:visible;enable-background:new;font-family:Andale Mono;-inkscape-font-specification:Andale Mono" transform="translate(-40 -518)"/></svg>
